X:1
T:Title
%%score [ 1 2 3 4 ]
L:1/8
Q:1/4=54
M:3/8
K:Ab
V:1 treble nm="Soprano"
V:2 treble nm="Alto"
V:3 treble-8 nm="Tenor"
V:4 bass nm="Bass"
V:1
!p!"^Andante" E | c2 B | A>!<(!Bc/!<)!d/ | e2 f | fe"^dim."c/A/ |!p! c B2 | B"^cresc."d>c | %7
w: Die|Nach- ti-|gall, sie war ent-|fernt, der|Früh- ling lockt sie|wie- der;|was neu- es|
 B/d<fe/ |!f! d2 e | a>ed/c/ | Bc z |!p! z cB/A/ | GA z | z z E | e>dc/B/ | A2 A | A3 | %17
w: hat sie nicht ge-|lernt, singt|al- te lie- be|Lie- der,|lie- * be|Lie- der.|Die|Nach- ti- gall, sie|war ent-|fernt,|
!p! z/ E/ (E/F/) (G/A/) | B/G/ (G/A/)"^cresc." (B/c/) | (d/B/) (B/c/) (d/e/) |!f! (fe/d/) (c/B/) | %21
w: was neu- * es _|hat sie nicht _ ge- *|lernt, _ nicht _ ge- *|lernt, _ _ singt _|
 A/c<eA/ | d c2 | z3 |!pp! z z E | c2 B | A>!<(!Bc/!<)!d/ | e2 f | fec/A/ | c B2 | B"^cresc."d>c | %31
w: al- te lie- be|Lie- der.||Die|Nach- ti-|gall, sie war ent-|fernt, der|Früh- ling lockt sie|wie- der;|was neu- es|
 B/d<fe/ |!p! d2 d | c>BA/G/ | GFF |"^cresc." f>ed/c/ |!f!!<(! c!<)!Be | a>ed/c/ | Bc z | %39
w: hat sie nicht ge-|lernt, singt|al- te lie- be|Lie- der, singt|al- te lie- be|Lie- der, singt|al- te lie- be|Lie- der,|
!p! z (cB/)A/ | G A2- | A3- | A3- | Ad>G |!p! GA !fermata!z |] %45
w: lie- * be|Lie- der.|_||* lie- be|Lie- der.|
V:2
!p! E | A2 E | C>!<(!EA/B/!<)! | c2 d | dc"^dim."A/A/ |!p! A G2 | G"^cresc."B>A | G/B<dc/ | %8
w: Die|Nach- ti-|gall, sie war ent-|fernt, der|Früh- ling lockt sie|wie- der;|was neu- es|hat sie nicht ge-|
!f! B2 d | c>cB/A/ |!p! GAE | A>ED/C/ | B,C z | z z E | E>GA/A/ | (AG) (F/G/) | A3/2 x3/2 | z3 | %18
w: lernt, singt|al- te lie- be|Lie- der, singt|al- te lie- be|Lie- der.|Die|Nach- ti- gall, sie|war _ ent- *|fernt,||
 z/ E/ (E/F/)"^cresc." (G/A/) | B/G/ (G/A/) (B/c/) |!f! (dc/B/) (A/G/) | A>AG/A/ | E E2 | %23
w: was neu- * es _|hat sie nicht _ ge- *|lernt, _ _ singt _|al- te lie- be|Lie- der,|
!p! z/ C/EE | EE z |!pp! EAG | F>!<(!AA/!<)!A/ | _G2 F | =GAA/A/ | A G2 | _G"^cresc."FF | F/F/B=A | %32
w: singt lie- be|Lie- der.|Die Nach- ti-|gall, sie war ent-|fernt, der|Früh- ling lockt sie|wie- der;|was neu- es|hat sie nicht ge-|
!p! B2 F | F>FF/=E/ | =EFF |"^cresc." F>AA/A/ |!f!!<(! A2!<)! G | A>AB/A/ | GA z |!p! z EF | %40
w: lernt, singt|al- te lie- be|Lie- der, singt|al- te lie- be|Lie- der,|al- te lie- be|Lie- der,|lie- be|
!pp! DC z/ A/ | .A.G z | .F.E z |!<(! (=D!<)!!>(!_D>)!>)!D |!p! DC !fermata!z |] %45
w: Lie- der, singt|al- te|lie- be,|lie- * be|Lie- der.|
V:3
 z | z3 | z3 | z3 | z3 | z3 | z3 | z3 | z3 | z3 | z3 | z3 |!p! z z E | c2 B | A>!<(!Bc/!<)!d/ | %15
w: ||||||||||||Die|Nach- ti-|gall, sie war ent-|
 e2 f | fe"^dim."c/A/ |!p! c B2 | Bd>"^cresc."c | B/d<fe/ |!f! d2 e | a>ed/c/ | Bc z | %23
w: fernt, der|Früh- ling lockt sie|wie- der;|was neu- es|hat sie nicht ge-|lernt, singt|al- te lie- be|Lie- der,|
!p! z (cB/)A/ | GA z |!pp! Eed | c>!<(!de/!<)!f/ | c2 d | dce/=d/ | =d e2 | B"^cresc."B=A | %31
w: lie- * be|Lie- der.|Die Nach- ti-|gall, sie war ent-|fernt, der|Früh- ling lockt sie|wie- der;|was neu- es|
 B/B/_dc |!p! d2 B | A>dc/B/ | BAA |"^cresc." d>cd/e/ |!f!!<(! (f2!<)! e) | e2 f |!p! dce | %39
w: hat sie nicht ge-|lernt, singt|al- te lie- be|Lie- der, singt|al- te lie- be|Lie- *|der, singt|lie- be, singt|
 a>ed/c/ |!pp! BA z/ f/ | .f.e z | .d.c z |!<(! B2-!<)!!>(! B/!>)!B/ |!p! BA !fermata!z |] %45
w: al- te lie- be|Lie- der, singt|al- te|lie- be,|lie- * be|Lie- der.|
V:4
 z | z3 | z3 | z3 | z3 | z3 | z3 | z3 | z3 | z3 | z3 | z3 |!p! z z E, | A,2 E, | %14
w: ||||||||||||Die|Nach- ti-|
 C,>!<(!E,A,/!<)!B,/ | C2 D | DC"^dim."A,/A,/ |!p! A, G,2 | G,B,>"^cresc."A, | G,/B,<DC/ | %20
w: gall, sie war ent-|fernt, der|Früh- ling lockt sie|wie- der;|was neu- es|hat sie nicht ge-|
!f! B,2 D | C>CB,/A,/ |!p! G,A,E, | A,>E,D,/C,/ | B,,C, z |!pp! E,E,E, | A,,>!<(!A,A,/!<)!A,/ | %27
w: lernt, singt|al- te lie- be|Lie- der, singt|al- te lie- be|Lie- der.|Die Nach- ti-|gall, sie war ent-|
 A,2 A, | A,A,A,/F,/ | E, E,2 | E,"^cresc."F,E, | D,/B,,/F,F, |!p! B,2 B,, | C,>C,C,/C,/ | C,D,D, | %35
w: fernt, der|Früh- ling lockt sie|wie- der;|was neu- es|hat sie nicht ge-|lernt, singt|al- te lie- be|Lie- der, singt|
"^cresc." D,>E,F,/E,/ |!f!!<(! (=D,2!<)! _D,) | C,2 D,/D,/ | E,A, z |!p! z C,D, | E,A,, z | z3 | %42
w: al- te lie- be|Lie- *|der, lie- be|Lie- der,|lie- be|Lie- der.||
 z3 | z E,>E, |!p! E,A,, !fermata!z |] %45
w: |lie- be|Lie- der.|

